X:369
T: Der Freier auf dem Bengel (4-68), S. 87
N: P0629
O: Lothringen
S: PINCK, Louis: Verklingende Weisen Bd 4, Kassel 1939]
R: ???, Liebe, Fenstergang]
M: 6/8
L: 1/16
K: Eb
B2 | B4B2B3BB2 | B2B2e2G4
GG | FFF2F2A2G2F2 | E2E2G2B,4
B,2 | G2G2G2G2F2E2 | E2D2E2F4
F2 | F2G2A2c2c2c2 | B2B2A2G4
GA | B6G2B2B2 | e2G2B2E4z2 |
F3GA2c2B2B2 | B2B2A2G4
GA | B6G2B2B2 | e2G2B2E4z2 |
F3GA2c2B2B2 | B2B2A2G4

@@@ Tune index: 7919
